X:1
T:Stand on Thy Guard
T:Stand on Thy Guard
T:George A. Griswold
T:George A. Griswold, 1912
T:Public Domain Courtesy of the Cyber Hymnal™
T:Public Domain Courtesy of the Cyber Hymnal™
C:George A. Griswold
Z:Public Domain
Z:Courtesy of the Cyber Hymnal™
%%score ( 1 2 ) ( 3 4 )
L:1/8
Q:1/4=107
M:4/4
K:C
V:1 treble 
V:2 treble 
V:3 bass 
V:4 bass 
V:1
 [CG]2 [CG]2 [DG]2 [DG]2 | [EG]3 [Ec] [EG]2 [E^G]2 | [FA]2 [FA]2 [GA]2 [GA]2 | %3
w: 1.~Be thou watch- ful,|O my soul! Let|not the e- vil|
w: 2.~Watch a- gainst the|hid- den host Who|in the Prince of|
w: 3.~“Watch and pray,” the|Sav- ior said, “Lest|in temp- ta- tion|
 [FA]3 [Fd] [FA]2 [F_A]2 | [FG]2 [FG]2 [FA]2 [FB]2 | [Ec]4 E2 [Ac]2 | [GB]3 [GB] [^Fc]2 [FA]2 | %7
w: powers con- trol! O|nev- er doff thine|ar- mor, O|nev- er sheathe thy|
w: Dark- ness boast! Not|sole- ly with the|hu- man Thy|spir- it must con-|
w: you be led!” And|Je- sus watch- eth|with you As|on your guard you|
 [Fd]6 z2 | [EG]2 [EG]2 [FG]2 [FG]2 | [EG]3 [Ec] [EG]2 [E^G]2 | [FA]2 [FA]2 [GA]2 [GA]2 | %11
w: sword!|Sa- tan’s zeal will|nev- er cool Christ’s|ran- somed ones to|
w: tend;|Roar- ing as a|li- on loud Or|with an an- gel’s|
w: stand.|Vain- ly you ob-|serve the foe Un-|less your Lord ob-|
 [FA]3 [Fd] [FA]2 [F_A]2 | [FG]2 [FG]2 [FA]2 [FB]2 | [Ed]2 [Ec]2 D2 [^DA]2 | [EG]4 [Fd]2 [FG]2 | %15
w: grasp and rule; Thou|art not for a|mo- ment safe A-|part from thy|
w: guise en- dowed, The|host of hell will|tempt thee sore, So|watch to the|
w: serve them, too, And|shield you from the|fier- y darts Hurled|forth from their|
 [Ec]6 ||"^Refrain" [EG]2 | [Ec]4 [EG]2 [Ec]2 | [Ge]3 [Gd] [Gc]4 | [FA]4 [Fc]2 [FA]2 | [EG]6 z2 | %21
w: Lord.||||||
w: end.|Be|so- ber! be|vi- gi- lant!|Stand on thy|guard;|
w: hand.||||||
 [Gd]4 [Gc]2 [Gd]2 | [Ge]3 [Fd] [Ec]4 | [^Fc]4 [FB]2 [FA]2 | [Fd]6 [FG]2 | %25
w: ||||
w: E- vil is|on thy track,|press- ing thee|hard; How-|
w: ||||
 [Ee]2 [Gd]2 [Gc]2 [^GB]2 | [^GB]3 A A2 A2 | [Ad]2 [Ae]2 [Af]2 [Ad]2 | [Gc]3 [GB] [GB]2 G2 | %29
w: ||||
w: ev- er smooth ap-|pear- ance be, Sus-|pect the lurk- ing|en- e- my! O|
w: ||||
 [Gc]4 [Gd]3 [Gd] | [Ge]6 z2 | [Fd]4 [Ec]2 [FB]2 | [Ec]6 z2 |] %33
w: ||||
w: stand on thy|guard!|Stand on thy|guard!|
w: ||||
V:2
 x8 | x8 | x8 | x8 | x8 | x4 E2 x2 | x8 | x8 | x8 | x8 | x8 | x8 | x8 | x4 ^D2 x2 | x8 | x6 || x2 | %17
 x8 | x8 | x8 | x8 | x8 | x8 | x8 | x8 | x8 | x3 A A2 A2 | x8 | x6 G2 | x8 | x8 | x8 | x8 |] %33
V:3
 [C,E,]2 [C,E,]2 [C,F,]2 [C,F,]2 | [C,G,]3 [C,G,] [C,C]2 [C,C]2 | [F,C]2 [F,C]2 [E,^C]2 [E,C]2 | %3
 [D,D]3 [D,A,] [D,D]2 [CD]2 | [B,D]2 [B,D]2 [A,D]2 [G,D]2 | [A,C]4 [A,C]2 [C,E]2 | %6
 [D,D]3 [D,B,] [D,A,]2 [D,C]2 | [G,,B,]6 z2 | [C,C]2 [C,G,]2 [C,A,]2 [C,B,]2 | %9
 [C,C]3 [C,G,] [C,C]2 [C,C]2 | [F,C]2 [F,A,]2 [E,B,]2 [E,^C]2 | [D,D]3 [D,A,] [D,D]2 [CD]2 | %12
 [B,D]2 [B,D]2 [A,D]2 [G,D]2 | [A,C]2 [A,C]2 [F,A,]2 [^F,C]2 | [G,C]4 [G,B,]2 [G,B,]2 | [C,C]6 || %16
 [C,C]2 | [C,G,]4 [C,C]2 [C,C]2 | [C,C]3 [D,B,] [E,C]4 | [F,C]4 [F,A,]2 [F,C]2 | [C,C]6 z2 | %21
 B,4 [E,C]2 [G,B,]2 | C3 [G,B,] [A,C]4 | (A,2 E2) [D,D]2 [D,C]2 | (C4 B,2) [G,B,]2 | %25
 [C,C]2 [D,B,]2 [E,C]2 [E,D]2 | [F,D]3 [F,C] [F,C]2 ^C2 | [F,D]2 [E,^C]2 [D,D]2 [F,D]2 | %28
 [G,E]3 [G,D] [G,D]2 B,2 | [E,C]4 [G,B,]3 [G,B,] | C6 z2 | [F,A,]4 G,2 [G,,G,]2 | [C,G,]6 z2 |] %33
V:4
 x8 | x8 | x8 | x8 | x8 | x8 | x8 | x8 | x8 | x8 | x8 | x8 | x8 | x8 | x8 | x6 || x2 | x8 | x8 | %19
 x8 | x8 | (G,2 F,2) x4 | C3 x5 | D,4 x4 | G,6 x2 | x8 | x6 (A,G,) | x8 | x6 (G,F,) | x8 | C6 x2 | %31
 x4 G,2 x2 | x8 |] %33

